X:1
L:1/4
Q:1/4=200
M:6/8
V:1
V:2 clef=bass
K:F
[V:1] [FBd]3/4 z z/4 d/e/ | [Adf]3/4 z/4 [Adg]3/4 z/4 [da]3/4 z/4 | [Bdb]3/4 z/4 [Bd]3/4 z/4 [Bg]3/4 z/4 | [Af]3/4 z z/4 g/e/ |
[V:2] [B,,,B,,]3/4 z3/4 [B,,,B,,]/[B,,,B,,]/[B,,,B,,]/ | [D,,D,]3/4 z3/4 [D,,D,]/[D,,D,]/[D,,D,]/ | [G,,,G,,]3/4 z3/4 [G,,,G,,]/[G,,,G,,]/[G,,,G,,]/ | [A,,,A,,]3/4 z3/4 [A,,,A,,]/[A,,,A,,]/[A,,,A,,]/ |